X:22
T:Eclipse, The
M: C|
L:1/8
B:Thompson's Compleat Collection of 200 Favourite Country Dances, vol. 3 (London, 1773)
Z:Transcribed and edited by Flynn Titford-Mock, 2007
Z:abc's:AK/Fiddler's Companion
K:A
B2 dB G2 BG | E2 FG A2 [A,2A2] | B2 dB G2 BG | "tr"E2 FG A4::c2 ae c2 ae | f2 f^d e2E2 |
c2 ae c2 ae | f2 fg a4 | c2 ac B2 gB | A2 cA B2E2 | c2 cA B2 BG | E2 FG A4 :|

